X: 2067
T: Astryd's
R: waltz
M: 3/4
K: Dmajor
z A de|:"D" f a2 b af|"A" e3 e fe|"Bm" de dB AE|"F#m" F3 F ED|"G" B2 de dB|
"D" A F2 F EF|"Em" G3 F ED|"A" E3 A de|"D" fA de fa|"A" a2 e4|"Bm" f2 ed cB|
"F#m" A3 d cd|"G" GA B3 d|"A" e3 a ef|"D" d3 e dc|1 d2 z A de:|2 d2 z d cd|:
"G" B2 GA BG|"A" c2 GA Bc|"Bm" d2 FG Aa|"F#m" g2 f2 ed|"D" DE FE Da|"Bm" g2 f2 e2|
"Em" d3 e dB|"A" A3 d cd|"G" B2 GA BG|"A" c2 GA Bc|"Bm" d2 FG Aa|"F#m" g2 f2 ed|
"Em" e3 d ea|"A" f3 d ec|"D" d3 e dc|1 d2 z d cd:|2 d2 z A de||

